icons/folder_type_dapr.svg

<svg xmlns="http://www.w3.org/2000/svg" viewBox="0 0 32 32"><path d="M27.5 5.5h-9.3l-2.1 4.2H4.4v16.8h25.2v-21Zm0 4.2h-8.2l1.1-2.1h7.1Z" style="fill:#5569bf"/><path d="M30.53 28.808h-3.457v-8.29a.253.253 0 0 0-.252-.253H14.35a.253.253 0 0 0-.252.253v8.29H10.47a.47.47 0 0 0-.47.47v1.252a.469.469 0 0 0 .47.47h20.06a.469.469 0 0 0 .47-.47v-1.252a.47.47 0 0 0-.47-.47Z" style="fill:#0d2192"/><path d="M10.47 31h6.03v-1.6h2.4v-9.135h-4.55a.253.253 0 0 0-.252.253v8.29H10.47a.47.47 0 0 0-.47.47v1.252a.469.469 0 0 0 .47.47Z" style="fill:#20329b"/></svg>

<svg xmlns="http://www.w3.org/2000/svg" viewBox="0 0 32 32"><title>folder_type_dapr</title><path d="M27.5,5.5H18.2L16.1,9.7H4.4V26.5H29.6V5.5Zm0,4.2H19.3l1.1-2.1h7.1Z" style="fill:#5569bf"/><path d="M30.53,28.808H27.073v-8.29a.253.253,0,0,0-.252-.253H14.35a.253.253,0,0,0-.252.253v8.29H10.47a.47.47,0,0,0-.47.47V30.53a.469.469,0,0,0,.47.47H30.53a.469.469,0,0,0,.47-.47V29.278A.47.47,0,0,0,30.53,28.808Z" style="fill:#0d2192"/><path d="M10.47,31H16.5V29.4h2.4V20.265H14.35a.253.253,0,0,0-.252.253v8.29H10.47a.47.47,0,0,0-.47.47V30.53A.469.469,0,0,0,10.47,31Z" style="fill:#20329b"/></svg>
